src/assets/info-icon.svg

<svg width="27" height="27" viewBox="0 0 27 27" fill="none" xmlns="http://www.w3.org/2000/svg">
<path d="M13.5007 0C6.04375 0 7.32527e-08 6.04375 7.32527e-08 13.4993C-0.000184623 15.2723 0.348895 17.0279 1.0273 18.666C1.70571 20.3041 2.70016 21.7925 3.95385 23.0461C5.20755 24.2998 6.69592 25.2943 8.33399 25.9727C9.97205 26.6511 11.7277 27.0002 13.5007 27C20.9548 27 27 20.9563 27 13.4993C27 6.04375 20.9548 0 13.5007 0ZM14.7606 4.87381C16.0768 4.87381 16.4635 5.63736 16.4635 6.5106C16.4635 7.60039 15.5917 8.60861 14.1025 8.60861C12.8567 8.60861 12.2633 7.98287 12.2998 6.94651C12.2998 6.07328 13.0296 4.87381 14.7606 4.87381ZM11.3886 21.5848C10.4887 21.5848 9.83199 21.0378 10.4605 18.6403L11.4913 14.3866C11.6699 13.706 11.6994 13.4332 11.4913 13.4332C11.2227 13.4332 10.0542 13.9029 9.36514 14.3669L8.91657 13.6315C11.1032 11.8049 13.6174 10.7333 14.6931 10.7333C15.5931 10.7333 15.7421 11.7964 15.2936 13.4332L14.1124 17.9049C13.9029 18.6951 13.9929 18.9679 14.2024 18.9679C14.4724 18.9679 15.3554 18.6417 16.2245 17.9569L16.7335 18.6403C14.606 20.7664 12.2872 21.5848 11.3886 21.5848Z" fill="#A4A4A4"/>
</svg>

<svg width="27" height="27" fill="none" xmlns="http://www.w3.org/2000/svg"><path d="M13.5 0C6.045 0 0 6.044 0 13.5A13.5 13.5 0 0013.5 27C20.956 27 27 20.956 27 13.5S20.955 0 13.5 0zm1.26 4.874c1.317 0 1.704.763 1.704 1.637 0 1.09-.872 2.098-2.361 2.098-1.246 0-1.84-.626-1.803-1.662 0-.874.73-2.073 2.46-2.073zm-3.371 16.71c-.9 0-1.557-.546-.928-2.944l1.03-4.253c.179-.681.208-.954 0-.954-.268 0-1.437.47-2.126.934l-.448-.736c2.186-1.826 4.7-2.898 5.776-2.898.9 0 1.05 1.063.6 2.7l-1.18 4.472c-.21.79-.12 1.063.09 1.063.27 0 1.152-.326 2.021-1.011l.51.683c-2.128 2.126-4.447 2.945-5.345 2.945z" fill="#A4A4A4"/></svg>
